X:80
T:Flying Boy,The. GS.080
T:Cats in the Village,aka. GS.080
M:6/8
L:1/8
Q:120
S:George Spencer m/s, Leeds,1831
R:.Jig
O:England
A:Leeds
N:Hmm..
H:1831
Z:vmp.Cherri Graebe
K:G major/2c/2 | â€œpâ€d2d (e2d) | B2B (d2c) | A2A AGA | (B3 G2) B/2c/2 |!
d2d e2d | B2B d2c | A2A AGF | (G3G2) ||!
â€œ^fâ€g | f2d def | (g3d2)B | (ce).c (Bd).B | AFD D2g |!
f2d def | (g3e2) g| fga gfe | (d3d2) â€œ^pâ€ B/2c/2 | !
d2d (e2d) | B2B (d2c) | A2A AGA | (B3G2) B/2c/2 |!
d2d (e2d) | B2B d2c | A2A AGF | (G3G2) ||!
â€œ^Minorâ€ B | e2e g2g | fef B2B | c2AF2B | (G3E2) B |!
e2eg2g | fef B2B |c2AF2B | â€œ(Da Capoâ€ (E3E2) |]

